X:1
T:Joy to the World
C:Lowell Mason (1848)
M:4/4
L:1/4
Q:100
K:C
%% Descending major scale demonstration
c3/2 B/2 | A3/2 G/2 | F E | D C | C B, | A, G, | G,3/2 A,/2 |
A,3/2 B,/2 | B,3/2 c/2 | c3/2 B/2 A G | G3/2 F/2 E D |]
